X: 176
T: Knight's of the Garter
%R: march
M: 2/4
L: 1/8
Z: 2014 John Chambers <jc:trillian.mit.edu>
B: Chas & Sam Thompson "Twenty Four Country Dances for the Year 1772", London 1772, p.88
F: http://folkopedia.efdss.org/images/8/89/Thompson_24_1772.PDF
K: G
|:\
G>A B2 | A>B c2 | BA/G/ AG/F/ | G[BD][dB,][gG,] |\
G>A B2 | A>B c2 | B/c/d/B/ A/B/c/A/ | G2 [G2G,2] :|
|:\
B>c d2 | c>d e2 | B>c dc/B/ | cAfa |\
B>c d2 | c>d e2 | B/c/d/B/ A/B/c/A/ | G2 [G2G,2] :|
% - - - - - - - - - - - - - - - - - - - - - - - - -
%%begintext align
%% The 1st Cu. cross over & turn .|. then cross over
%% the 3d Cu. & turn .|: lead up to the top foot it
%% & cast off .|: hands six round :|:
%%endtext
% - - - - - - - - - - - - - - - - - - - - - - - - -

%%sep 1 1 500
%%sep 1 1 500
